src/assets/vector/mic.svg

<svg width="154" height="207" viewBox="0 0 154 207" fill="none" xmlns="http://www.w3.org/2000/svg">
<mask id="mask0_92_213" style="mask-type:alpha" maskUnits="userSpaceOnUse" x="0" y="0" width="154" height="207">
<path d="M134.896 19.5059C121.915 6.19146 109.921 0 97.1462 0C83.9383 0 70.881 6.80308 57.2213 20.8044C34.9665 43.6225 33.9027 62.5545 40.2478 77.6097C29.1674 89.2681 20.563 98.9599 15.1123 105.255C8.20237 113.234 6.46077 124.337 10.217 133.418C-3.48986 147.428 -3.40514 169.992 10.4712 183.89C17.2493 190.674 26.2491 194.41 35.8232 194.41H35.9455C45.5667 194.382 54.5853 190.58 61.354 183.721L77.3297 167.499C83.3829 161.364 94.0019 161.354 100.055 167.499C106.447 173.973 106.447 184.511 100.055 190.985C96.4119 194.692 96.459 200.639 100.159 204.29C101.994 206.097 104.376 207 106.767 207C109.206 207 111.634 206.059 113.48 204.196C127.026 190.439 127.026 168.054 113.48 154.307C100.3 140.917 77.0943 140.926 63.9052 154.307L47.9296 170.519C44.7194 173.775 40.4455 175.582 35.8796 175.591C31.1726 175.478 27.0304 173.831 23.8014 170.595C17.2681 164.055 17.1645 153.488 23.4625 146.807C26.5221 148.096 29.8076 148.736 33.1213 148.736C39.5605 148.736 46.0845 146.327 51.281 141.604C57.4566 135.986 66.8801 127.179 78.111 115.982C83.2699 118.184 88.4288 119.247 93.7289 119.247C106.937 119.247 119.994 112.444 133.654 98.4424C168.74 62.4792 151.173 36.1608 134.915 19.4965L134.896 19.5059ZM38.5909 127.697C35.8891 130.143 32.067 130.632 29.7511 128.892C29.4687 128.675 29.1863 128.44 28.9038 128.158C28.6591 127.904 28.4237 127.621 28.226 127.339C26.3715 124.742 26.8516 120.451 29.3463 117.563C34.1286 112.039 41.3963 103.843 50.6879 93.9634C52.4201 96.0053 54.1994 97.9343 55.9692 99.7409C57.9932 101.82 59.9984 103.721 61.9848 105.462C52.2507 115.088 44.0793 122.691 38.5909 127.697ZM120.164 85.3161C110.373 95.3561 101.477 100.437 93.7101 100.437C86.3577 100.437 78.6382 96.043 69.4407 86.6052C53.5686 70.3362 48.6827 56.5042 70.7022 33.9401C80.4928 23.9002 89.389 18.819 97.1556 18.819C104.508 18.819 112.228 23.2133 121.425 32.651C137.297 48.9201 142.174 62.7521 120.164 85.3161Z" fill="black"/>
</mask>
<g mask="url(#mask0_92_213)">
<path d="M-191.586 -16.8965C-191.586 -62.1838 -154.874 -98.8965 -109.586 -98.8965H86.4135C131.701 -98.8965 168.414 -62.1838 168.414 -16.8965V119.104C168.414 164.391 131.701 201.104 86.4135 201.104H-109.586C-154.874 201.104 -191.586 164.391 -191.586 119.104V-16.8965Z" fill="#2075BC" fill-opacity="0.1"/>
</g>
</svg>

<svg xmlns="http://www.w3.org/2000/svg" viewBox="0 0 154 200.32"><defs><style>.cls-1{fill:#2075bc;}</style></defs><g id="Layer_2" data-name="Layer 2"><g id="Layer_1-2" data-name="Layer 1"><path class="cls-1" d="M33.12,148.74a27.07,27.07,0,0,0,18.16-7.13C57.46,136,66.88,127.18,78.11,116a39.29,39.29,0,0,0,15.62,3.26c13.21,0,26.26-6.8,39.92-20.8,35.09-36,17.52-62.28,1.26-78.95h0C121.92,6.2,109.92,0,97.15,0,83.94,0,70.88,6.81,57.22,20.81,35,43.63,33.9,62.56,40.25,77.61,29.17,89.27,20.56,99,15.11,105.26a27.44,27.44,0,0,0-4.89,28.16,36,36,0,0,0,.25,50.47,35.58,35.58,0,0,0,25.35,10.52H36a35.57,35.57,0,0,0,25.4-10.68l16-16.23a16.34,16.34,0,0,1,22.73,0,16.79,16.79,0,0,1,0,23.49,9.37,9.37,0,0,0-2.3,9.33,80.66,80.66,0,0,0,22.86-6.67,35.69,35.69,0,0,0-7.14-39.34c-13.18-13.39-36.39-13.38-49.57,0l-16,16.21a16.84,16.84,0,0,1-12,5.08,17.07,17.07,0,0,1-12.42-28.79A24.86,24.86,0,0,0,33.12,148.74ZM70.7,33.94c9.79-10,18.69-15.12,26.46-15.12,7.35,0,15.07,4.4,24.27,13.84,15.87,16.26,20.74,30.1-1.27,52.66-9.79,10-18.68,15.12-26.45,15.12-7.35,0-15.07-4.39-24.27-13.83C53.57,70.34,48.68,56.51,70.7,33.94ZM29.35,117.57c4.78-5.53,12-13.72,21.34-23.6,1.73,2,3.51,4,5.28,5.78,2,2.07,4,4,6,5.72-9.73,9.62-17.9,17.23-23.39,22.23-2.7,2.45-6.52,2.94-8.84,1.2a10.94,10.94,0,0,1-.85-.74,5.85,5.85,0,0,1-.67-.82C26.37,124.75,26.85,120.46,29.35,117.57Z"/></g></g></svg>
